X: 40020
T: Three Sea Captains, The
R: jig
M: 6/8
K: Gmajor
G2 G BAB|c2 A F2 A|G2 G BAB|d2 B G2 B|
cec A2 c|BdB G2 B|gfe dcB|ABG FED|
G2 G BAB|c2 A F2 A|G2 G BAB|d2 B G2 B|
cec A2 c|BdB G2 B|AcB AGF|G3 G2||
g3 dBG|ABc def|gfg dcB|ecA A2 f|
~g2 a bge|~f2 g afd|egf ed^c|d3 d2 B|
c2 d edc|B2 c dcB|A2 B ~c2 e|dBG FED|
G2 G BAB|c2 A F2 A|G2 G BAB|d2B G2 B|
cec A2 c|BdB G2 B|AcB AGF|G3 G2||

